X:1
T:Miss Gay's -- Reel
R:reel
B:Ryan's Mammoth Collection
N: 175
Z: Contributed by Ray Davies,  ray:davies99.freeserve.co.uk
M:2/4
L:1/16
K:G
uD2|\
GGGG BABd | egdg bgeg | GGGG AGBG | AGBG GFED |
 A3B AGAB | cBcd edef | gfga gfed | cBAF G2 ::
kA2ka2 .a2ba | gfef .g2.g2 | .G2Bd gfed | edef .g2.G2 |
kA2ka2 .a2ba | gfef .g2.d2 |  egfa gfed | cBAF G2z2 :|
